public/assets/images/icons/grey/visibility-visible/edit-small.svg

<svg width="16" height="16" xmlns="http://www.w3.org/2000/svg" viewBox="0 0 16 16" shape-rendering="geometricPrecision" fill="#6e6e6e"><defs><mask id="a"><rect fill="#fff" width="100%" height="100%"/><path d="M12.997.858a4.809 4.809 0 0 0-4.253 2.563 4.81 4.81 0 0 0 8.506 0A4.812 4.812 0 0 0 12.997.858z" fill="#000"/></mask></defs><path d="M12.971 1.607c-1.315 0-2.454.74-3.029 1.825a3.425 3.425 0 0 0 6.058 0 3.43 3.43 0 0 0-3.029-1.825z" fill="#cb1800"/><path d="M6.231 12.232l1.343-.505-.988-.877-.355 1.382zm4.143-6.606V3.124h-9.35v11.805h9.35V9.53l3.113-3.497-1.938-1.728-1.175 1.321zm-.962 1.083l-2.51 2.819 1.937 1.73.573-.645v3.351H1.983V4.086h7.428v2.623zm5.13-3.814a1.297 1.297 0 0 0-1.828.1l-.69.774L13.961 5.5l.694-.778-.002-.001a1.3 1.3 0 0 0-.111-1.826zm-7.888 4.79H3.233v.961h3.421v-.961zM5.265 5.642H3.233v.962h2.032v-.962z" mask="url(#a)"/></svg>

<?xml version="1.0"?><!DOCTYPE svg PUBLIC "-//W3C//DTD SVG 1.1//EN" "http://www.w3.org/Graphics/SVG/1.1/DTD/svg11.dtd"><svg width="16px" height="16px" xmlns="http://www.w3.org/2000/svg" viewBox="0 0 16 16" shape-rendering="geometricPrecision" fill="#6e6e6e"><defs><mask id="visibility-visible-path"><rect fill="#fff" width="100%" height="100%"/><path d="M12.997,0.858c-1.845,0-3.446,1.039-4.253,2.563c0.808,1.523,2.408,2.562,4.253,2.562 c1.844,0,3.444-1.039,4.253-2.562C16.441,1.897,14.841,0.858,12.997,0.858z" fill="#000"/></mask></defs><path display="inline" d="M12.971,1.607c-1.315,0-2.454,0.74-3.029,1.825 c0.575,1.085,1.715,1.825,3.029,1.825c1.314,0,2.453-0.74,3.029-1.825C15.424,2.348,14.284,1.607,12.971,1.607z" fill="#cb1800"/><g mask="url(#visibility-visible-path)"><path d="M6.231,12.232l1.343-0.505L6.586,10.85L6.231,12.232z M10.374,5.626V3.124h-9.35v11.805h9.35V9.53 l3.113-3.497l-1.938-1.728L10.374,5.626z M9.412,6.709l-2.51,2.819l1.937,1.73l0.573-0.645v3.351H1.983V4.086h7.428V6.709z M14.542,2.895c-0.533-0.477-1.348-0.43-1.828,0.1l-0.69,0.774L13.961,5.5l0.694-0.778l-0.002-0.001 C15.123,4.186,15.074,3.369,14.542,2.895z M6.654,7.685H3.233v0.961h3.421V7.685z M5.265,5.642H3.233v0.962h2.032V5.642z"/></g></svg>
